!!!OTL: St. Odilien Als Sankt Odilien geboren war,
!!!ARE: Europa, Mitteleuropa, Lothringen, Woelflingen
!!!SCT: D0065
!!!YEM: Copyright 1995, estate of Helmut Schaffrath.
**kern
*ICvox
*Ivox
*M3/8
*k[f#]
*G:
{8dd
=1
4dd
8dd
=2
8dd
8dd
8dd
=3
8gg
8ffn
8gg
=4
[4.dd
=5
4dd]}
{8ffn
=6
8.ffn
16ffn
8ffn
=7
8ffn
8gg
8ffn
=8
8ee-
8dd
8cc
=9
[4.b-
=10
4b-]}
{8dd
=11
8cc
8dd
8ee-
=12
4dd
8cc
=13
4b-
8a
=14
[4.g
=15
4g]}
==
!!!AGN: Legenden - Lied
!! In Zeile 261 und 263 rhythmisch korrigiert
!!    Grundton in der kleinen Oktave
!!!ONB: ESAC (Essen Associative Code) Database: DVA
!!!AMT: simple triple
!!!AIN: vox
!!!EED: Helmut Schaffrath
!!!EEV: 1.0
*-
